;FLAVOR:UltiGCode
;TIME:19244
;MATERIAL:37440
;MATERIAL2:0
;NOZZLE_DIAMETER:0.6
;Generated with Cura_SteamEngine 2.4.0

;LAYER_COUNT:192
;LAYER:0
M107
G10
G0 F3927.3 X56.615 Y63.479 Z0.4
;TYPE:SUPPORT
G11
G1 F1800 X58.895 Y63.479 E0.48336
G1 X59.098 Y63.971 E0.59619
G1 X56.615 Y63.971 E1.12259
G1 X56.615 Y63.479 E1.22689
G10
G0 F3927.3 X66.393 Y63.715
G0 X66.393 Y63.971
G11
G1 F1800 X66.393 Y61.529 E1.7446
G1 X86.549 Y61.529 E6.01767
G1 X86.549 Y63.971 E6.53537
G1 X66.393 Y63.971 E10.80845
G0 F3927.3 X66.605 Y63.6
G1 F1800 X86.337 Y63.6 E14.99163
G10
G0 F3927.3 X84.8 Y63.715
G0 X84.8 Y63.759
G11
G1 F1800 X84.8 Y61.741 E15.41945
G10
G0 F3927.3 X84.8 Y61.785
G0 X79.5 Y61.785
G0 X79.5 Y61.741
G11
G1 F1800 X79.5 Y63.759 E15.84726
G10
G0 F3927.3 X79.5 Y63.715
G0 X74.2 Y63.715
G0 X74.2 Y63.759
G11
G1 F1800 X74.2 Y61.741 E16.27508
G10
G0 F3927.3 X74.2 Y61.785
G0 X68.9 Y61.785
G0 X68.9 Y61.741
G11
G1 F1800 X68.9 Y63.759 E16.70289
G10
G0 F3927.3 X68.9 Y63.715
G0 X112.304 Y63.727
G0 X115.742 Y71.37
G0 X115.821 Y71.383
G0 X122.435 Y72.464
G0 X122.514 Y72.477
G0 X122.504 Y72.476
G0 X122.26 Y72.232
G11
G1 F1800 X125.245 Y72.232 E17.33571
G1 X125.13 Y72.42 E17.38243
G1 X125.13 Y79.781 E18.94297
G1 X125.245 Y79.969 E18.98969
G1 X122.26 Y79.969 E19.62251
G1 X122.26 Y72.232 E21.26275
G10
G0 F3927.3 X122.504 Y72.476
G0 X122.516 Y74.2
G0 X122.472 Y74.2
G11
G1 F1800 X124.918 Y74.2 E21.7813
G0 F3927.3 X124.918 Y79.5
G1 F1800 X122.472 Y79.5 E22.29986
G10
G0 F3927.3 X122.516 Y79.5
G0 X134.128 Y79.713
G0 X134.128 Y79.781
G11
G1 F1800 X134.128 Y72.42 E23.86039
G1 X134.013 Y72.232 E23.90711
G1 X136.998 Y72.232 E24.53993
G1 X136.998 Y79.969 E26.18017
G1 X134.013 Y79.969 E26.81299
G1 X134.128 Y79.781 E26.85972
G0 F3927.3 X134.34 Y79.5
G1 F1800 X136.786 Y79.5 E27.37827
G10
G0 F3927.3 X136.742 Y79.5
G0 X136.742 Y74.2
G0 X136.786 Y74.2
G11
G1 F1800 X134.34 Y74.2 E27.89682
G10
G0 F3927.3 X122.516 Y74.2
G0 X122.436 Y74.2
G0 X115.822 Y74.2
G0 X115.742 Y74.2
G0 X112.316 Y74.2
G0 X110.714 Y74.2
G0 X110.204 Y65.827
;TYPE:WALL-INNER
G11
G1 F1800 X110.204 Y133.172 E42.17396
G1 X42.855 Y133.172 E56.45195
G1 X42.855 Y65.827 E70.72909
G1 X110.204 Y65.827 E85.00708
G0 F3927.3 X85.857 Y94.172
G1 F1800 X67.202 Y94.172 E88.96194
G1 X67.202 Y101.829 E90.58522
G1 X85.857 Y101.829 E94.54008
G1 X85.857 Y94.172 E96.16336
G0 F3927.3 X87.857 Y112.172
G1 F1800 X64.402 Y112.172 E101.13582
G1 X64.402 Y128.028 E104.4973
G1 X87.857 Y128.028 E109.46976
G1 X87.857 Y112.172 E112.83123
G0 F3927.3 X87.327 Y112.702
G1 F1800 X64.932 Y112.702 E117.57897
G1 X64.932 Y127.498 E120.71572
G1 X87.327 Y127.498 E125.46346
G1 X87.327 Y112.702 E128.60021
G0 F3927.3 X87.397 Y112.632
G0 X85.397 Y101.369
G0 X85.327 Y101.299
G1 F1800 X85.327 Y94.702 E129.99878
G1 X67.732 Y94.702 E133.72892
G1 X67.732 Y101.299 E135.12748
G1 X85.327 Y101.299 E138.85762
G0 F3927.3 X85.397 Y101.369
G0 X110.664 Y133.632
G0 X110.734 Y133.702
G1 F1800 X42.325 Y133.702 E153.36033
G1 X42.325 Y65.297 E167.86219
G1 X110.734 Y65.297 E182.3649
G1 X110.734 Y133.702 E196.86676
G0 F3927.3 X111.23 Y134.198
;TYPE:WALL-OUTER
G1 F1800 X41.829 Y134.198 E211.57977
G1 X41.829 Y64.801 E226.29193
G1 X111.23 Y64.801 E241.00494
G1 X111.23 Y134.198 E255.71711
G0 F3927.3 X110.93 Y134.198
G0 X110.664 Y133.632
G0 X87.427 Y127.002
G0 X86.831 Y127.002
G1 F1800 X86.831 Y113.198 E258.64356
G1 X65.428 Y113.198 E263.18099
G1 X65.428 Y127.002 E266.10744
G1 X86.831 Y127.002 E270.64488
G0 F3927.3 X86.831 Y126.702
G0 X87.427 Y126.702
G0 X87.355 Y112.674
G0 X85.427 Y100.803
G0 X84.831 Y100.803
G1 F1800 X84.831 Y95.198 E271.83314
G1 X68.228 Y95.198 E275.35297
G1 X68.228 Y100.803 E276.54123
G1 X84.831 Y100.803 E280.06107
G0 F3927.3 X84.831 Y100.503
G0 X85.427 Y100.503
G0 X86.095 Y100.337
;TYPE:SKIN
G1 F1800 X109.965 Y124.206 E287.21746
G0 X110.058 Y124.299
G0 F3927.3 X109.965 Y124.955
G1 F1800 X86.095 Y101.086 E294.37385
G0 X86.002 Y100.993
G0 F3927.3 X86.095 Y101.836
G1 F1800 X109.965 Y125.705 E301.53025
G0 X110.058 Y125.798
G0 F3927.3 X109.965 Y126.454
G1 F1800 X85.577 Y102.067 E308.84194
G0 X85.484 Y101.974
G0 F3927.3 X84.828 Y102.067
G1 F1800 X109.965 Y127.204 E316.37835
G0 X110.058 Y127.297
G0 F3927.3 X109.965 Y127.953
G1 F1800 X84.078 Y102.067 E324.13946
G0 X83.985 Y101.974
G0 F3927.3 X83.328 Y102.067
G1 F1800 X109.965 Y128.703 E332.12544
G0 X110.058 Y128.796
G0 F3927.3 X109.965 Y129.452
G1 F1800 X82.579 Y102.067 E340.33598
G0 X82.486 Y101.974
G0 F3927.3 X81.829 Y102.067
G1 F1800 X109.965 Y130.202 E348.77137
G0 X110.058 Y130.295
G0 F3927.3 X109.965 Y130.951
G1 F1800 X81.08 Y102.067 E357.43133
G0 X80.987 Y101.974
G0 F3927.3 X80.33 Y102.067
G1 F1800 X109.965 Y131.701 E366.31615
G0 X110.058 Y131.794
G0 F3927.3 X109.965 Y132.45
G1 F1800 X79.581 Y102.067 E375.42552
G0 X79.488 Y101.974
G0 F3927.3 X78.831 Y102.067
G1 F1800 X109.696 Y132.931 E384.67911
G0 X109.789 Y133.024
G0 F3927.3 X108.946 Y132.931
G1 F1800 X88.095 Y112.08 E390.93052
G0 X88.002 Y111.987
G0 F3927.3 X87.947 Y111.932
G1 F1800 X78.082 Y102.067 E393.88818
G0 X77.989 Y101.974
G0 F3927.3 X77.332 Y102.067
G1 F1800 X87.197 Y111.932 E396.84583
G0 X87.29 Y112.025
G0 F3927.3 X86.448 Y111.932
G1 F1800 X76.583 Y102.067 E399.80349
G0 X76.49 Y101.974
G0 F3927.3 X75.833 Y102.067
G1 F1800 X85.698 Y111.932 E402.76115
G0 X85.791 Y112.025
G0 F3927.3 X84.948 Y111.932
G1 F1800 X75.084 Y102.067 E405.71866
G0 X74.991 Y101.974
G0 F3927.3 X74.334 Y102.067
G1 F1800 X84.199 Y111.932 E408.67632
G0 X84.292 Y112.025
G0 F3927.3 X83.449 Y111.932
G1 F1800 X73.585 Y102.067 E411.63382
G0 X73.492 Y101.974
G0 F3927.3 X72.835 Y102.067
G1 F1800 X82.7 Y111.932 E414.59148
G0 X82.793 Y112.025
G0 F3927.3 X81.95 Y111.932
G1 F1800 X72.086 Y102.067 E417.54899
G0 X71.993 Y101.974
G0 F3927.3 X71.336 Y102.067
G1 F1800 X81.201 Y111.932 E420.50665
G0 X81.294 Y112.025
G0 F3927.3 X80.451 Y111.932
G1 F1800 X70.586 Y102.067 E423.46431
G0 X70.493 Y101.974
G0 F3927.3 X69.837 Y102.067
G1 F1800 X79.702 Y111.932 E426.42196
G0 X79.795 Y112.025
G0 F3927.3 X78.952 Y111.932
G1 F1800 X69.087 Y102.067 E429.37962
G0 X68.994 Y101.974
G0 F3927.3 X68.338 Y102.067
G1 F1800 X78.203 Y111.932 E432.33728
G0 X78.296 Y112.025
G0 F3927.3 X77.453 Y111.932
G1 F1800 X67.588 Y102.067 E435.29494
G0 X67.495 Y101.974
G0 F3927.3 X66.963 Y101.441
G1 F1800 X43.093 Y77.572 E442.45133
G0 X43 Y77.479
G0 F3927.3 X43.093 Y78.321
G1 F1800 X76.704 Y111.932 E452.52835
G0 X76.797 Y112.025
G0 F3927.3 X75.954 Y111.932
G1 F1800 X43.093 Y79.071 E462.38052
G0 X43 Y78.978
G0 F3927.3 X43.093 Y79.821
G1 F1800 X75.205 Y111.932 E472.00797
G0 X75.298 Y112.025
G0 F3927.3 X74.455 Y111.932
G1 F1800 X43.093 Y80.57 E481.41072
G0 X43 Y80.477
G0 F3927.3 X43.093 Y81.32
G1 F1800 X73.705 Y111.932 E490.5886
G0 X73.798 Y112.025
G0 F3927.3 X72.956 Y111.932
G1 F1800 X43.093 Y82.069 E499.54192
G0 X43 Y81.976
G0 F3927.3 X43.093 Y82.819
G1 F1800 X72.206 Y111.932 E508.27039
G0 X72.299 Y112.025
G0 F3927.3 X71.457 Y111.932
G1 F1800 X43.093 Y83.568 E516.77429
G0 X43 Y83.475
G0 F3927.3 X43.093 Y84.318
G1 F1800 X70.707 Y111.932 E525.05334
G0 X70.8 Y112.025
G0 F3927.3 X69.958 Y111.932
G1 F1800 X43.093 Y85.067 E533.10782
G0 X43 Y84.974
G0 F3927.3 X43.093 Y85.817
G1 F1800 X69.208 Y111.932 E540.93744
G0 X69.301 Y112.025
G0 F3927.3 X68.459 Y111.932
G1 F1800 X43.093 Y86.566 E548.54251
G0 X43 Y86.473
G0 F3927.3 X43.093 Y87.316
G1 F1800 X67.709 Y111.932 E555.92271
G0 X67.802 Y112.025
G0 F3927.3 X66.96 Y111.932
G1 F1800 X43.093 Y88.065 E563.07835
G0 X43 Y87.972
G0 F3927.3 X43.093 Y88.815
G1 F1800 X66.21 Y111.932 E570.00914
G0 X66.303 Y112.025
G0 F3927.3 X65.461 Y111.932
G1 F1800 X43.093 Y89.564 E576.71536
G0 X43 Y89.471
G0 F3927.3 X43.093 Y90.314
G1 F1800 X64.711 Y111.932 E583.19672
G0 X64.804 Y112.025
G0 F3927.3 X64.162 Y112.132
G1 F1800 X43.093 Y91.064 E589.51334
G0 X43 Y90.971
G0 F3927.3 X43.093 Y91.813
G1 F1800 X64.162 Y112.882 E595.8301
G0 X64.255 Y112.975
G0 F3927.3 X64.162 Y113.632
G1 F1800 X43.093 Y92.563 E602.14687
G0 X43 Y92.47
G0 F3927.3 X43.093 Y93.312
G1 F1800 X64.162 Y114.381 E608.46364
G0 X64.255 Y114.474
G0 F3927.3 X64.162 Y115.131
G1 F1800 X43.093 Y94.062 E614.7804
G0 X43 Y93.969
G0 F3927.3 X43.093 Y94.811
G1 F1800 X64.162 Y115.88 E621.09717
G0 X64.255 Y115.973
G0 F3927.3 X64.162 Y116.63
G1 F1800 X43.093 Y95.561 E627.41393
G0 X43 Y95.468
G0 F3927.3 X43.093 Y96.31
G1 F1800 X64.162 Y117.379 E633.7307
G0 X64.255 Y117.472
G0 F3927.3 X64.162 Y118.129
G1 F1800 X43.093 Y97.06 E640.04747
G0 X43 Y96.967
G0 F3927.3 X43.093 Y97.809
G1 F1800 X64.162 Y118.878 E646.36423
G0 X64.255 Y118.971
G0 F3927.3 X64.162 Y119.628
G1 F1800 X43.093 Y98.559 E652.681
G0 X43 Y98.466
G0 F3927.3 X43.093 Y99.308
G1 F1800 X64.162 Y120.377 E658.99776
G0 X64.255 Y120.47
G0 F3927.3 X64.162 Y121.127
G1 F1800 X43.093 Y100.058 E665.31453
G0 X43 Y99.965
G0 F3927.3 X43.093 Y100.807
G1 F1800 X64.162 Y121.876 E671.6313
G0 X64.255 Y121.969
G0 F3927.3 X64.162 Y122.626
G1 F1800 X43.093 Y101.557 E677.94806
G0 X43 Y101.464
G0 F3927.3 X43.093 Y102.307
G1 F1800 X64.162 Y123.375 E684.26468
G0 X64.255 Y123.468
G0 F3927.3 X64.162 Y124.125
G1 F1800 X43.093 Y103.056 E690.58144
G0 X43 Y102.963
G0 F3927.3 X43.093 Y103.806
G1 F1800 X64.162 Y124.875 E696.89821
G0 X64.255 Y124.968
G0 F3927.3 X64.162 Y125.624
G1 F1800 X43.093 Y104.555 E703.21498
G0 X43 Y104.462
G0 F3927.3 X43.093 Y105.305
G1 F1800 X64.162 Y126.374 E709.53174
G0 X64.255 Y126.467
G0 F3927.3 X64.162 Y127.123
G1 F1800 X43.093 Y106.054 E715.84851
G0 X43 Y105.961
G0 F3927.3 X43.093 Y106.804
G1 F1800 X64.162 Y127.873 E722.16527
G0 X64.255 Y127.966
G0 F3927.3 X64.556 Y128.266
G1 F1800 X69.221 Y132.931 E723.5639
G0 X69.314 Y133.024
G0 F3927.3 X69.971 Y132.931
G1 F1800 X65.305 Y128.266 E724.96268
G0 X65.212 Y128.173
G0 F3927.3 X66.055 Y128.266
G1 F1800 X70.72 Y132.931 E726.36131
G0 X70.813 Y133.024
G0 F3927.3 X71.47 Y132.931
G1 F1800 X66.804 Y128.266 E727.76009
G0 X66.711 Y128.173
G0 F3927.3 X67.554 Y128.266
G1 F1800 X72.219 Y132.931 E729.15872
G0 X72.312 Y133.024
G0 F3927.3 X72.969 Y132.931
G1 F1800 X68.303 Y128.266 E730.5575
G0 X68.21 Y128.173
G0 F3927.3 X69.053 Y128.266
G1 F1800 X73.718 Y132.931 E731.95613
G0 X73.811 Y133.024
G0 F3927.3 X74.468 Y132.931
G1 F1800 X69.802 Y128.266 E733.3549
G0 X69.709 Y128.173
G0 F3927.3 X70.552 Y128.266
G1 F1800 X75.217 Y132.931 E734.75353
G0 X75.31 Y133.024
G0 F3927.3 X75.967 Y132.931
G1 F1800 X71.301 Y128.266 E736.15231
G0 X71.208 Y128.173
G0 F3927.3 X72.051 Y128.266
G1 F1800 X76.716 Y132.931 E737.55094
G0 X76.809 Y133.024
G0 F3927.3 X77.466 Y132.931
G1 F1800 X72.8 Y128.266 E738.94972
G0 X72.707 Y128.173
G0 F3927.3 X73.55 Y128.266
G1 F1800 X78.215 Y132.931 E740.34835
G0 X78.308 Y133.024
G0 F3927.3 X78.965 Y132.931
G1 F1800 X74.299 Y128.266 E741.74713
G0 X74.206 Y128.173
G0 F3927.3 X75.049 Y128.266
G1 F1800 X79.714 Y132.931 E743.14576
G0 X79.807 Y133.024
G0 F3927.3 X80.464 Y132.931
G1 F1800 X75.799 Y128.266 E744.54439
G0 X75.706 Y128.173
G0 F3927.3 X76.548 Y128.266
G1 F1800 X81.214 Y132.931 E745.94316
G0 X81.307 Y133.024
G0 F3927.3 X81.963 Y132.931
G1 F1800 X77.298 Y128.266 E747.34179
G0 X77.205 Y128.173
G0 F3927.3 X78.047 Y128.266
G1 F1800 X82.713 Y132.931 E748.74057
G0 X82.806 Y133.024
G0 F3927.3 X83.462 Y132.931
G1 F1800 X78.797 Y128.266 E750.1392
G0 X78.704 Y128.173
G0 F3927.3 X79.546 Y128.266
G1 F1800 X84.212 Y132.931 E751.53798
G0 X84.305 Y133.024
G0 F3927.3 X84.961 Y132.931
G1 F1800 X80.296 Y128.266 E752.93661
G0 X80.203 Y128.173
G0 F3927.3 X81.045 Y128.266
G1 F1800 X85.711 Y132.931 E754.33539
G0 X85.804 Y133.024
G0 F3927.3 X86.46 Y132.931
G1 F1800 X81.795 Y128.266 E755.73402
G0 X81.702 Y128.173
G0 F3927.3 X82.544 Y128.266
G1 F1800 X87.21 Y132.931 E757.1328
G0 X87.303 Y133.024
G0 F3927.3 X87.959 Y132.931
G1 F1800 X83.294 Y128.266 E758.53142
G0 X83.201 Y128.173
G0 F3927.3 X84.043 Y128.266
G1 F1800 X88.709 Y132.931 E759.9302
G0 X88.802 Y133.024
G0 F3927.3 X89.458 Y132.931
G1 F1800 X84.793 Y128.266 E761.32883
G0 X84.7 Y128.173
G0 F3927.3 X85.542 Y128.266
G1 F1800 X90.208 Y132.931 E762.72761
G0 X90.301 Y133.024
G0 F3927.3 X90.957 Y132.931
G1 F1800 X86.292 Y128.266 E764.12624
G0 X86.199 Y128.173
G0 F3927.3 X87.042 Y128.266
G1 F1800 X91.707 Y132.931 E765.52487
G0 X91.8 Y133.024
G0 F3927.3 X92.457 Y132.931
G1 F1800 X87.791 Y128.266 E766.92365
G0 X87.698 Y128.173
G0 F3927.3 X88.095 Y127.82
G1 F1800 X93.206 Y132.931 E768.45599
G0 X93.299 Y133.024
G0 F3927.3 X93.956 Y132.931
G1 F1800 X88.095 Y127.071 E770.21305
G0 X88.002 Y126.978
G0 F3927.3 X88.095 Y126.321
G1 F1800 X94.705 Y132.931 E772.19481
G0 X94.798 Y133.024
G0 F3927.3 X95.455 Y132.931
G1 F1800 X88.095 Y125.572 E774.40129
G0 X88.002 Y125.479
G0 F3927.3 X88.095 Y124.822
G1 F1800 X96.204 Y132.931 E776.83248
G0 X96.297 Y133.024
G0 F3927.3 X96.954 Y132.931
G1 F1800 X88.095 Y124.073 E779.48837
G0 X88.002 Y123.98
G0 F3927.3 X88.095 Y123.323
G1 F1800 X97.703 Y132.931 E782.36898
G0 X97.796 Y133.024
G0 F3927.3 X98.453 Y132.931
G1 F1800 X88.095 Y122.574 E785.47429
G0 X88.002 Y122.481
G0 F3927.3 X88.095 Y121.824
G1 F1800 X99.202 Y132.931 E788.80432
G0 X99.295 Y133.024
G0 F3927.3 X99.952 Y132.931
G1 F1800 X88.095 Y121.075 E792.35906
G0 X88.002 Y120.982
G0 F3927.3 X88.095 Y120.325
G1 F1800 X100.701 Y132.931 E796.1385
G0 X100.794 Y133.024
G0 F3927.3 X101.451 Y132.931
G1 F1800 X88.095 Y119.575 E800.14281
G0 X88.002 Y119.482
G0 F3927.3 X88.095 Y118.826
G1 F1800 X102.2 Y132.931 E804.37167
G0 X102.293 Y133.024
G0 F3927.3 X102.95 Y132.931
G1 F1800 X88.095 Y118.076 E808.8254
G0 X88.002 Y117.983
G0 F3927.3 X88.095 Y117.327
G1 F1800 X103.7 Y132.931 E813.50384
G0 X103.793 Y133.024
G0 F3927.3 X104.449 Y132.931
G1 F1800 X88.095 Y116.577 E818.40698
G0 X88.002 Y116.484
G0 F3927.3 X88.095 Y115.828
G1 F1800 X105.199 Y132.931 E823.53484
G0 X105.292 Y133.024
G0 F3927.3 X105.948 Y132.931
G1 F1800 X88.095 Y115.078 E828.88741
G0 X88.002 Y114.985
G0 F3927.3 X88.095 Y114.329
G1 F1800 X106.698 Y132.931 E834.46468
G0 X106.791 Y133.024
G0 F3927.3 X107.447 Y132.931
G1 F1800 X88.095 Y113.579 E840.26667
G0 X88.002 Y113.486
G0 F3927.3 X88.095 Y112.83
G1 F1800 X108.197 Y132.931 E846.29337
G0 X108.29 Y133.024
G0 F3927.3 X109.965 Y123.456
G1 F1800 X86.095 Y99.587 E853.44976
G0 X86.002 Y99.494
G0 F3927.3 X86.095 Y98.837
G1 F1800 X109.965 Y122.707 E860.6063
G0 X110.058 Y122.8
G0 F3927.3 X109.965 Y121.957
G1 F1800 X86.095 Y98.088 E867.76269
G0 X86.002 Y97.995
G0 F3927.3 X86.095 Y97.338
G1 F1800 X109.965 Y121.208 E874.91924
G0 X110.058 Y121.301
G0 F3927.3 X109.965 Y120.458
G1 F1800 X86.095 Y96.589 E882.07563
G0 X86.002 Y96.496
G0 F3927.3 X86.095 Y95.839
G1 F1800 X109.965 Y119.708 E889.23202
G0 X110.058 Y119.801
G0 F3927.3 X109.965 Y118.959
G1 F1800 X86.095 Y95.09 E896.38842
G0 X86.002 Y94.997
G0 F3927.3 X86.095 Y94.34
G1 F1800 X109.965 Y118.209 E903.54481
G0 X110.058 Y118.302
G0 F3927.3 X109.965 Y117.46
G1 F1800 X58.57 Y66.065 E918.95371
G0 X58.477 Y65.972
G0 F3927.3 X59.319 Y66.065
G1 F1800 X109.965 Y116.71 E934.13791
G0 X110.058 Y116.803
G0 F3927.3 X109.965 Y115.961
G1 F1800 X60.069 Y66.065 E949.09739
G0 X59.976 Y65.972
G0 F3927.3 X60.818 Y66.065
G1 F1800 X109.965 Y115.211 E963.83216
G0 X110.058 Y115.304
G0 F3927.3 X109.965 Y114.462
G1 F1800 X61.568 Y66.065 E978.34223
G0 X61.475 Y65.972
G0 F3927.3 X62.318 Y66.065
G1 F1800 X109.965 Y113.712 E992.62743
G0 X110.058 Y113.805
G0 F3927.3 X109.965 Y112.963
G1 F1800 X63.067 Y66.065 E1006.68807
G0 X62.974 Y65.972
G0 F3927.3 X63.817 Y66.065
G1 F1800 X109.965 Y112.213 E1020.52385
G0 X110.058 Y112.306
G0 F3927.3 X109.965 Y111.464
G1 F1800 X64.566 Y66.065 E1034.13508
G0 X64.473 Y65.972
G0 F3927.3 X65.316 Y66.065
